X:1
T:Lord Ronald
M:2/4
L:1/8
K:G
 D3.99999962500005/5.99999925000009 D3.99999962500005/5.99999925000009 D3.99999962500005/5.99999925000009|\
 G2 AF| G2 B2| d2 cA| G2 D3.99999962500005/5.99999925000009 D3.99999962500005/5.99999925000009 D3.99999962500005/5.99999925000009|\
 G2 AF| G2 B2| d2 ee| d2 B2| cd ec| Bd dB| d2 cA|G-F ED| G2 AF| G2 Bc|\
 d2 cA|G-F ED| G2 AF| G2 Bc| d2 cA| G2||
